ibt/assets/img/icons/cart-ico.svg

<svg width="23" height="23" viewBox="0 0 23 23" fill="none" xmlns="http://www.w3.org/2000/svg">
<path d="M18.502 17.7727C17.124 17.7727 16.002 18.9457 16.002 20.3863C16.002 21.8269 17.124 23 18.502 23C19.8801 23 21.0021 21.827 21.0021 20.3863C21.0021 18.9457 19.8801 17.7727 18.502 17.7727ZM18.502 21.9545C17.675 21.9545 17.002 21.2509 17.002 20.3863C17.002 19.5217 17.675 18.8181 18.502 18.8181C19.3291 18.8181 20.0021 19.5217 20.0021 20.3863C20.0021 21.2509 19.3291 21.9545 18.502 21.9545Z" fill="#02324A"/>
<path d="M8.5001 17.7727C7.12205 17.7727 6 18.9457 6 20.3863C6 21.8269 7.12205 23 8.5001 23C9.87814 23 11.0002 21.827 11.0002 20.3864C11.0002 18.9458 9.87819 17.7727 8.5001 17.7727ZM8.5001 21.9545C7.67304 21.9545 7.00003 21.2509 7.00003 20.3863C7.00003 19.5217 7.67304 18.8181 8.5001 18.8181C9.32715 18.8181 10.0002 19.5217 10.0002 20.3863C10.0002 21.2509 9.32715 21.9545 8.5001 21.9545Z" fill="#02324A"/>
<path d="M20.5009 15.6818H8.95939C7.77232 15.6818 6.74131 14.7984 6.50828 13.5804L3.99018 0.420273C3.94316 0.175636 3.73817 0 3.50017 0H0.500038C0.224026 0 0 0.234198 0 0.522743C0 0.811289 0.224026 1.04549 0.500038 1.04549H3.09014L5.52723 13.7864C5.85326 15.4905 7.29731 16.7273 8.95939 16.7273H20.5009C20.7769 16.7273 21.001 16.4931 21.001 16.2046C21.001 15.916 20.7769 15.6818 20.5009 15.6818Z" fill="#02324A"/>
<path d="M22.8759 3.31314C22.7809 3.20126 22.6449 3.13647 22.5009 3.13647H4.50004C4.22403 3.13647 4 3.37067 4 3.65922C4 3.94776 4.22403 4.18191 4.50004 4.18191H21.9348L21.2238 10.1263C21.1298 10.9094 20.4897 11.5001 19.7347 11.5001H6.00011C5.72409 11.5001 5.50007 11.7343 5.50007 12.0228C5.50007 12.3114 5.72409 12.5456 6.00011 12.5456H19.7347C20.9928 12.5456 22.0598 11.5618 22.2158 10.256L22.9969 3.724C23.0149 3.57552 22.9709 3.42497 22.8759 3.31314Z" fill="#02324A"/>
</svg>

<svg width="23" height="23" fill="none" xmlns="http://www.w3.org/2000/svg"><path d="M18.502 17.773c-1.378 0-2.5 1.173-2.5 2.613S17.124 23 18.502 23s2.5-1.173 2.5-2.614c0-1.44-1.122-2.613-2.5-2.613zm0 4.181c-.827 0-1.5-.703-1.5-1.568 0-.864.673-1.568 1.5-1.568s1.5.704 1.5 1.568c0 .865-.673 1.569-1.5 1.569zM8.5 17.773c-1.378 0-2.5 1.173-2.5 2.613S7.122 23 8.5 23s2.5-1.173 2.5-2.614c0-1.44-1.122-2.613-2.5-2.613zm0 4.181c-.827 0-1.5-.703-1.5-1.568 0-.864.673-1.568 1.5-1.568s1.5.704 1.5 1.568c0 .865-.673 1.569-1.5 1.569zm12-6.272H8.96c-1.188 0-2.219-.884-2.452-2.102L3.99.42A.506.506 0 003.5 0h-3C.224 0 0 .234 0 .523c0 .288.224.522.5.522h2.59l2.437 12.741c.326 1.705 1.77 2.941 3.432 2.941h11.542c.276 0 .5-.234.5-.522a.512.512 0 00-.5-.523z" fill="#02324A"/><path d="M22.876 3.313a.492.492 0 00-.375-.177H4.5c-.276 0-.5.235-.5.523 0 .289.224.523.5.523h17.435l-.711 5.944c-.094.783-.734 1.374-1.49 1.374H6c-.276 0-.5.234-.5.523 0 .288.224.523.5.523h13.735c1.258 0 2.325-.984 2.48-2.29l.782-6.532a.537.537 0 00-.121-.41z" fill="#02324A"/></svg>
